apex/img/arrow-left.svg

<svg width="15" height="24" viewBox="0 0 15 24" fill="none" xmlns="http://www.w3.org/2000/svg">
<path d="M0.38283 12.9365L11.0631 23.6166C11.3102 23.8638 11.6399 24 11.9915 24C12.3431 24 12.6729 23.8638 12.9199 23.6166L13.7064 22.8303C14.2182 22.3179 14.2182 21.4851 13.7064 20.9735L4.73792 12.005L13.7164 3.02651C13.9634 2.77929 14.0998 2.44974 14.0998 2.09832C14.0998 1.74652 13.9634 1.41696 13.7164 1.16955L12.9298 0.383412C12.6826 0.136194 12.3531 1.52703e-07 12.0015 1.83441e-07C11.6499 2.1418e-07 11.3201 0.136194 11.0731 0.383412L0.382829 11.0733C0.135221 11.3213 -0.00077737 11.6524 3.71968e-06 12.0044C-0.000777309 12.3578 0.135221 12.6887 0.38283 12.9365Z" fill="black"/>
</svg>

<svg width="15" height="24" fill="none" xmlns="http://www.w3.org/2000/svg"><path d="M.383 12.937l10.68 10.68c.247.247.577.383.928.383.352 0 .682-.136.929-.383l.786-.787a1.315 1.315 0 000-1.856l-8.968-8.969 8.978-8.978c.247-.248.384-.577.384-.929 0-.351-.137-.681-.384-.928L12.93.383A1.303 1.303 0 0012.002 0c-.352 0-.682.136-.929.383L.383 11.073c-.248.248-.384.58-.383.931 0 .354.135.685.383.933z" fill="#000"/></svg>
